src/icons/setting.svg

<svg width="24" height="24" viewBox="0 0 24 24" fill="none" xmlns="http://www.w3.org/2000/svg">
<path fill-rule="evenodd" clip-rule="evenodd" d="M9.94697 1.19144C10.6128 1.06566 11.2992 1 12 1C12.7011 1 13.3878 1.06572 14.054 1.19162L14.833 1.91085L15.3678 3.86967L17.1302 2.86321L18.1894 2.90533C19.33 3.68296 20.3166 4.66947 21.0943 5.81007L21.1364 6.86932L20.1299 8.63183L22.0891 9.16671L22.8083 9.94568C22.9343 10.6119 23 11.2988 23 12C23 12.7006 22.9344 13.3868 22.8087 14.0524L22.0894 14.8316L20.1299 15.3665L21.137 17.1299L21.0948 18.1891C20.3174 19.3296 19.3311 20.316 18.1908 21.0937L17.1315 21.1359L15.3678 20.1287L14.8325 22.0892L14.0535 22.8085C13.3875 22.9343 12.7009 23 12 23C11.2994 23 10.6132 22.9344 9.94748 22.8087L9.16835 22.0894L8.63305 20.1287L6.86891 21.1362L5.80961 21.094C4.66935 20.3164 3.68313 19.3301 2.90564 18.1898L2.86349 17.1306L3.87089 15.3665L1.91054 14.8313L1.19128 14.0522C1.0656 13.3866 1 12.7005 1 12C1 11.2988 1.06573 10.6121 1.19163 9.94593L1.91086 9.16694L3.87089 8.63183L2.864 6.86868L2.9062 5.80935C3.68392 4.66892 4.67045 3.68257 5.81104 2.90505L6.87021 2.86295L8.63305 3.86967L9.16788 1.91069L9.94697 1.19144ZM10.9264 3.06327L10.2225 5.64142L8.76193 6.24642L6.44137 4.92121C5.87675 5.36526 5.36648 5.87543 4.92232 6.43996L6.24764 8.76071L5.64264 10.2213L3.06338 10.9255C3.02155 11.2775 3 11.636 3 12C3 12.3634 3.02148 12.7214 3.06318 13.0728L5.64264 13.7771L6.24764 15.2377L4.92178 17.5594C5.36576 18.1238 5.8758 18.6338 6.44017 19.0778L8.76193 17.7519L10.2225 18.3569L10.9269 20.9368C11.2784 20.9785 11.6365 21 12 21C12.3638 21 12.7221 20.9785 13.074 20.9367L13.7783 18.3569L15.2389 17.7519L17.5602 19.0776C18.1246 18.6335 18.6347 18.1233 19.0787 17.5588L17.7532 15.2377L18.3582 13.7771L20.9368 13.0731C20.9785 12.7215 21 12.3635 21 12C21 11.636 20.9784 11.2773 20.9366 10.9253L18.3582 10.2213L17.7532 8.76071L19.0782 6.44056C18.634 5.8759 18.1237 5.36563 17.559 4.92148L15.2389 6.24642L13.7783 5.64142L13.0744 3.06337C12.7224 3.02155 12.3639 3 12 3C11.6364 3 11.2781 3.02151 10.9264 3.06327ZM12 10C10.8954 10 10 10.8954 10 12C10 13.1046 10.8954 14 12 14C13.1046 14 14 13.1046 14 12C14 10.8954 13.1046 10 12 10ZM8 12C8 9.79086 9.79086 8 12 8C14.2091 8 16 9.79086 16 12C16 14.2091 14.2091 16 12 16C9.79086 16 8 14.2091 8 12Z" fill="black"/>
</svg>

<svg xmlns="http://www.w3.org/2000/svg" width="24" height="24" fill="none"><path fill="currentColor" fill-rule="evenodd" d="M9.947 1.191a11 11 0 0 1 4.107 0l.779.72.535 1.959 1.762-1.007 1.06.042a11 11 0 0 1 2.904 2.905l.042 1.06-1.006 1.762 1.96.535.718.779a11 11 0 0 1 0 4.106l-.719.78-1.96.534 1.008 1.764-.042 1.06a11 11 0 0 1-2.904 2.904l-1.06.042-1.763-1.007-.536 1.96-.779.72a11.1 11.1 0 0 1-4.106 0l-.779-.72-.535-1.96-1.764 1.007-1.06-.042a11 11 0 0 1-2.903-2.904l-.043-1.06 1.008-1.763-1.96-.536-.72-.779a11 11 0 0 1 0-4.106l.72-.78 1.96-.534-1.007-1.763.042-1.06a11 11 0 0 1 2.905-2.904l1.06-.042L8.632 3.87l.535-1.96zm.98 1.872-.704 2.578-1.461.605-2.32-1.325a9 9 0 0 0-1.52 1.519l1.326 2.32-.605 1.461-2.58.704a9 9 0 0 0 0 2.148l2.58.704.605 1.46-1.326 2.322a9 9 0 0 0 1.518 1.519l2.322-1.326 1.46.605.705 2.58a9 9 0 0 0 2.147 0l.704-2.58 1.46-.605 2.322 1.326a9 9 0 0 0 1.519-1.52l-1.326-2.32.605-1.46 2.579-.705a9 9 0 0 0 0-2.148l-2.579-.704-.605-1.46 1.325-2.32a9 9 0 0 0-1.519-1.52l-2.32 1.325-1.46-.605-.705-2.578a9 9 0 0 0-2.148 0M12 10a2 2 0 1 0 0 4 2 2 0 0 0 0-4m-4 2a4 4 0 1 1 8 0 4 4 0 0 1-8 0" clip-rule="evenodd"/></svg>
